www/assets/icons/festival.svg

<svg xmlns="http://www.w3.org/2000/svg" width="24" height="24" viewBox="0 0 24 24" fill='currentColor'><path d="M13 6.2V4.5h3l-1-1.49 1-1.51h-5v4.7l-9 6.3v10h7v-5l3.03-2 2.97 2v5h7v-10z"/></svg>

<svg width="24" height="24" viewBox="0 0 24 24" xmlns="http://www.w3.org/2000/svg" fill='currentColor'><path d="M13 6.2V4.5H16L15 3.01L16 1.5H11V6.2L2 12.5V22.5H9V17.5L12.03 15.5L15 17.5V22.5H22V12.5L13 6.2Z"/></svg>
